X:1
T:Title
%%score { ( 1 4 5 ) | ( 2 3 6 ) } { ( 7 9 11 ) | ( 8 10 12 13 ) }
L:1/8
M:4/4
K:A
V:1 treble nm="Grand Piano"
V:4 treble 
V:5 treble 
V:2 treble 
V:3 treble 
V:6 treble 
V:7 bass nm="Bright Piano, Keyboard"
V:9 bass 
V:11 bass 
V:8 bass 
V:10 bass 
V:12 bass 
V:13 bass 
V:1
 z4 z2[Q:1/4=100] e>e | [ce]2 [ec']>b [ca]2 [ca]>g | [df][fa][eg][df] z2 C[Ac] | [Bd]>c de fgab | %4
[M:7/8] [ec']2 [db]2 [ca]3 |[M:1/4] EE |[M:4/4] E2 c>B A2 A>G | F2 GA E2 E>E | F2 AA A2 GA | %9
 B6 EE | E2 c>B A2 A>G | F2 GA E2 E>E | F2 A>B c2 BB |[M:3/4] A6 | %14
[M:11/32] (5:4:6c-c3/8-[=Gc]-[Gc]3/8 [Gc]/-[Gc]3/16 | %15
[M:4/4] (5:4:5[Fd]2 [Fd]/ [DF]/-[DF]3/2[FA]/ d3- d/4 z/4 z/ | c2- c/4 z/4 z/ z z4 | %17
 (9:8:8[EB]2 [EG]2 [FA]/ [GB]/-[GB]3/2[Ac]/-[Ac]3/2[A^d]/ |[M:9/8] z3 z B2- B-B/4 z/4 z/ z | %19
[M:4/4] (9:8:8[CE]2 [Ec]2 [DB]/ [CA]/-[CA]3/2[CA]/-[CA]3/2[EG]/ | %20
 (5:4:4[DF]2- [DF]/ [A,EG][A,FA]3/2 z2 (3:2:2[CE]2 [CE] | %21
 (9:8:8[DF]2 [EA]2 [FB]/ c/-c3/2c/-c3/2B/ |[M:3/4] [CA]6 |[M:11/32] c/4-c/4-c/4-c/4-c/4-c/-<c/ z/ | %24
[M:4/4] [Fd]>[Fd] [DF]>[FA] [Fd]3 [Fd] | [Ec]2 [CE]>[CA] [Ec]3 [Ec] | %26
 [EB]2 [EG]>[FA] [GB]2 [Ac]>[A^d] |[M:9/8] e6- e z z |[M:4/4] [CE]2 [Ec]>[DB] [CA]2 [CA]>[EG] | %29
 [DF]2 [A,EG][A,FA] [CE]2 [CE]>[CE] | [DF]2 [EA]>[FB] c2 c>B |[M:3/4] [CA]6 |] %32
V:2
 z4 z2 c>c | A,,E, .[A,C]>[K:treble]d[K:bass] A,,E, .[A,C]>[K:treble]e | D,,D,[F,A,]D, A,,E,A,E, | %3
 z z/[K:treble] A/ Bc def^e |[M:7/8][K:bass] [E,,E,]- [E,,E,]3 [A,,E,]3 |[M:1/4] z2 |[M:4/4] z8 | %7
 z8 | z8 | z8 | z8 | z8 | z8 |[M:3/4] z6 | %14
[M:11/32] [A,,A,]/4-[A,,A,]/4-[A,,A,]/4-[A,,A,]/4-[A,,A,]/-<[A,,A,]/[A,,A,]3/4 | %15
[M:4/4] (5:4:5[D,A,]2 [D,A,]/ [D,A,]/-[D,A,]3/2[D,A,]/ A,3- A,/4 z/4 z/ | A,2- A,/4 z/4 z/ z z4 | %17
 (9:8:8[B,,G,]2 [B,,B,]2 [B,,B,]/ [B,,B,]/-[B,,B,]3/2[B,,B,]/-[B,,B,]3/2[B,,B,]/ | %18
[M:9/8] z3 z D2- D-D/4 z/4 z/ z | %19
[M:4/4] (9:8:8[A,,A,]2 [A,,A,]2 [A,,A,]/ [A,,A,]/-[A,,A,]3/2[A,,A,]/-[A,,A,]3/2[A,,A,]/ | %20
 z4 [A,,A,]2- [A,,A,]/4 z/4 z/ z | %21
 (9:8:8[D,A,]2 [C,A,]2 [D,A,]/ [E,A,E]/-[E,A,E]3/2[E,G,E]/-[E,G,E]3/2[E,G,D]/ |[M:3/4] [A,,A,]6 | %23
[M:11/32] [A,,A,]/4-[A,,A,]/4-[A,,A,]/4-[A,,A,]/4-[A,,A,]/-<[A,,A,]/[A,,A,]3/4 | %24
[M:4/4] [D,A,]>[D,A,] [D,A,]>[D,A,] [D,A,]3 [D,A,] | [A,,A,]2 [A,,A,]>[A,,A,] [A,,A,]3 [A,,A,] | %26
 [B,,G,]2 [B,,B,]>[B,,B,] [B,,B,]2 [B,,B,]>[B,,B,] |[M:9/8] B,^A,B, C D2- D[E,G,]>[E,G,D] | %28
[M:4/4] [A,,A,]2 [A,,A,]>[A,,A,] [A,,A,]2 [A,,A,]>[A,,A,] | %29
 [D,A,]2 [D,,D,][D,,D,] [A,,A,]2 [A,,A,]>[A,,A,] | [D,A,]2 [C,A,]>[D,A,] [E,A,E]2 [E,G,E]>[E,G,D] | %31
[M:3/4] [A,,A,]6 |] %32
V:3
 x8 | z2 z E,[K:treble][K:bass] z2 z E,[K:treble] | x8 | [E,,E,]8[K:treble] |[M:7/8][K:bass] x7 | %5
[M:1/4] x2 |[M:4/4] x8 | x8 | x8 | x8 | x8 | x8 | x8 |[M:3/4] x6 |[M:11/32] x11/4 | %15
[M:4/4] z4 (3:2:2D,4 [D,A,]2 | (7:8:6A,,3/2[A,,A,]3/2.[A,,A,]/ [A,,A,]/- [A,,A,]2 [A,,A,] | %17
 x481/60 |[M:9/8] z3 C-C/4 z/4 z/ z z3 |[M:4/4] x481/60 | %20
 (5:4:4[D,A,]2- [D,A,]/ [D,,D,][D,,D,]3/2 z2 (3:2:2[A,,A,]2 [A,,A,] | x481/60 |[M:3/4] x6 | %23
[M:11/32] x11/4 |[M:4/4] x8 | x8 | x8 |[M:9/8] E,6- E, z z |[M:4/4] x8 | x8 | x8 |[M:3/4] x6 |] %32
V:4
 x8 | x8 | z4 [ce]4 | x8 |[M:7/8] x7 |[M:1/4] x2 |[M:4/4] x8 | x8 | x8 | x8 | x8 | x8 | x8 | %13
[M:3/4] x6 |[M:11/32] E/-<E/ z/4 z/4 z/4 z/4 z/4 z/ |[M:4/4] z4 (3:2:2F4 [Fd]2 | %16
 (7:8:6E3/2[CE]3/2.[CA]/ [Ec]/- [Ec]2 [Ec] | x481/60 |[M:9/8] z3 A-A/4 z/4 z/ z z3 | %19
[M:4/4] x481/60 | z4 [CE]2- [CE]/4 z/4 z/ z | x481/60 |[M:3/4] x6 | %23
[M:11/32] (5:4:6E-E3/8=G-G3/8 [Gc]/-[Gc]3/16 |[M:4/4] x8 | x8 | x8 |[M:9/8] G=G^G A B2- BE>E | %28
[M:4/4] x8 | x8 | x8 |[M:3/4] x6 |] %32
V:5
 x8 | x8 | x8 | x8 |[M:7/8] x7 |[M:1/4] x2 |[M:4/4] x8 | x8 | x8 | x8 | x8 | x8 | x8 |[M:3/4] x6 | %14
[M:11/32] x11/4 |[M:4/4] x8 | x8 | x481/60 | %18
[M:9/8] (4:3:5[Ge-][=Ge]-[Ge-]/[^Ge]/-[Ge-] e3- e-[E-e]/<E/-E/E/ |[M:4/4] x481/60 | x8 | x481/60 | %22
[M:3/4] x6 |[M:11/32] x11/4 |[M:4/4] x8 | x8 | x8 |[M:9/8] x9 |[M:4/4] x8 | x8 | x8 |[M:3/4] x6 |] %32
V:6
 x8 | x7/2[K:treble] x/[K:bass] x7/2[K:treble] x/ | x8 | x3/2[K:treble] x13/2 |[M:7/8][K:bass] x7 | %5
[M:1/4] x2 |[M:4/4] x8 | x8 | x8 | x8 | x8 | x8 | x8 |[M:3/4] x6 |[M:11/32] x11/4 |[M:4/4] x8 | %16
 x8 | x481/60 |[M:9/8] (4:3:5[E,-B,][E,^A,]-[E,-A,]/[E,B,]/-[E,-B,] E,3- E,[E,G,]>[E,G,D] | %19
[M:4/4] x481/60 | x8 | x481/60 |[M:3/4] x6 |[M:11/32] x11/4 |[M:4/4] x8 | x8 | x8 |[M:9/8] x9 | %28
[M:4/4] x8 | x8 | x8 |[M:3/4] x6 |] %32
V:7
 z8 | z8 | z8 | z8 |[M:7/8] z7 |[M:1/4] z2 |[M:4/4] z E[K:treble] .A2 z2 AE | %7
 z D[K:treble]FD[K:bass] z E .A2 | z D[K:treble]FD[K:bass] z ^D[K:treble][A,F]D | %9
 z [B,E][B,E][B,E] [G,B,DE][G,B,DE][G,B,DE][G,B,DE] | z2[K:treble] AE[K:bass] z E .A2 | %11
 z D[K:treble]FD[K:bass] z E .A2 | z D[K:treble]^ED[K:bass] z A z G |[M:3/4] z[K:treble] A Ec A2 | %14
[M:11/32] [E=Gc]/4-[EGc]/4-[EGc]/4-[EGc]/4-[EGc]/-<[EGc]/[EGc]3/4 | %15
[M:4/4] (3:2:2[FAd]2 z (3:2:2[FAd]2 z (7:8:5[FAd]3/4F/4-F3/4 A3/4d | %16
 (3:2:2[EAc]2 z (3:2:2[EAc]2 z (7:8:5[EAc]3/4E/4-E3/4 A3/4c | %17
 (9:8:8[B,-EGB]2 [B,-G]2 [B,A]/ [GB]/-[GB]3/2[Ac]/-[Ac]3/2[A^d]/ |[M:9/8] z3 z d2- d-d/4 z/4 z/ z | %19
[M:4/4] (9:8:8[CE]2 [Ec]2 B/ [CA]/-[CA]3/2[CA]/-[CA]3/2G/ | %20
 (5:4:4[DF]2- [DF]/ [EG][FA]3/2 z2 (3:2:2[CE]2 [CE] | %21
 (9:8:8[DF]2 [EA]2 [FAB]/ [EAc]/-[EAc]3/2[EGc]/-[EGc]3/2[DGB]/ |[M:3/4] z6 | %23
[M:11/32] [E=Gc]/4-[EGc]/4-[EGc]/4-[EGc]/4-[EGc]/-<[EGc]/[EGc]3/4 | %24
[M:4/4] .[FAd]2 .[FAd]2 [FAd]FAd | .[EAc]2 .[EAc]2 [EAc]EAc | [EGB]2 G>A [GB]2 [Ac]>[A^d] | %27
[M:9/8] .[GB]3 z3 z3 |[M:4/4] [CE]2 [Ec]>B [CA]2 [CA]>G | [DF]2 [EG][FA] [CE]2 [CE]>[CE] | %30
 [DF]2 [EA]>[FAB] [EAc]2 [EGc]>[DGB] |[M:3/4] [CA]6 |] %32
V:8
 z8 | z8 | z8 | z8 |[M:7/8] z7 |[M:1/4] z2 |[M:4/4] z2 CE z E .C2 | z2 .A,2 z2 CE | %8
 z2 .A,2 F,,2 [B,,,B,,]2 | z G,G,G, E,,G,,B,,E, | z E .C2 z2 CE | z2 .A,2 z2 CE | %12
 z2 .A,2 z [CE] z [DE] |[M:3/4] z [CE] CE [A,C]2 | %14
[M:11/32] E,/4-E,/4-E,/4-E,/4-E,/4-E,/4-E,/-<E,/ z/4 | %15
[M:4/4] (3:2:2[D,,D,]2 z (3:2:2[D,,D,]2 z (7:8:6z/ z/4 D/4-[K:treble]D3/4 F3/4F | %16
 (3:2:2[A,,A,]2 z (3:2:2[A,,A,]2 z (7:8:6z/ z/4 C/4-C3/4 C3/4E | %17
 (7:8:5B,,3/2-[B,,-E]3/2[B,,F]/ [B,,-E,B,-]3/2 [B,,F,B,]2 | %18
[M:9/8][K:treble] z3 z B2- B-B/4 z/4 z/ z | %19
[M:4/4][K:bass] (9:8:10A,,-[A,,-E,][A,,-A,]3/2[A,,-E,]/[A,,D]/ A,,-[A,,-E,][A,,-A,]3/2[A,,-E,]/[A,,E]/ | %20
 (9:8:8D,,-[D,,-A,,][D,,-D,]3/2[D,,A,,] A,,-[A,,-E,][A,,-A,]3/2[A,,E,] | D,2- D,/4 z/4 z/ z z4 | %22
[M:3/4] [A,,E,]6 |[M:11/32] E,/4-E,/4-E,/4-E,/4-E,/-<E,/-[A,,-D,-E,A,-]/4[A,,D,A,]/ | %24
[M:4/4] .[D,,D,]2 .[D,,D,]2 z[K:treble] DFF | .[A,,A,]2 .[A,,A,]2 z CCE | %26
 z2[K:treble] E>F[K:bass] [B,,B,]2- [B,,F,B,]2 |[M:9/8][K:treble] z =G^G ^A B2- B[K:bass] E,2 | %28
[M:4/4] z E, .A,>D z E, .A,>E | z A,,D,A,, z E,A,E, | [D,,D,]2 [C,,C,]>[D,,D,] [E,,E,]2 [E,,E,]2 | %31
[M:3/4] [A,,E,]6 |] %32
V:9
 x8 | x8 | x8 | x8 |[M:7/8] x7 |[M:1/4] x2 |[M:4/4] A,,4[K:treble] z4 | %7
 D,4[K:treble][K:bass] A,,4 | D,4[K:treble][K:bass] F,2[K:treble] z2 | E,4 z4 | %10
 z4[K:treble][K:bass] A,,4 | D,4[K:treble][K:bass] A,,4 | D,4[K:treble][K:bass] E,2 E,2 | %13
[M:3/4] A,,6[K:treble] |[M:11/32] x11/4 |[M:4/4] x8 | x8 | x8 |[M:9/8] z3 c-c/4 z/4 z/ z z3 | %19
[M:4/4] x8 | z4 [CE]2- [CE]/4 z/4 z/ z | x8 |[M:3/4] [CA]6- | %23
[M:11/32] [CA]/4 z/4 z/4 z/4 z/4 z/4 z/4 z/4 z/4 z/ |[M:4/4] x8 | x8 | B,4 z4 | %27
[M:9/8] e-[^Ae-][Be-] [ce-] [de]2- [de] [G,DE]2 |[M:4/4] x8 | x8 | x8 |[M:3/4] x6 |] %32
V:10
 x8 | x8 | x8 | x8 |[M:7/8] x7 |[M:1/4] x2 |[M:4/4] z4 A,,4 | D,,4 z4 | D,,4 z4 | E,,4 z4 | %10
 A,,4 z4 | D,,4 z4 | D,,4 E,,2 E,,2 |[M:3/4] z2 E,2 z2 | %14
[M:11/32] [A,,A,]/4-[A,,A,]/4-[A,,A,]/4-[A,,A,]/4-[A,,A,]/-<[A,,A,]/[A,,D,A,]3/4 | %15
[M:4/4] z4 [D,,D,]4[K:treble] | z4 [B,,A,]4 | x8 |[M:9/8][K:treble] z3 ^A-A/4 z/4 z/ z z3 | %19
[M:4/4][K:bass] x8 | x8 | (7:8:5D,,3/2[C,,C,]3/2.[D,,D,]/ [E,,E,]3/2 [E,,E,]2 |[M:3/4] x6 | %23
[M:11/32] [A,,A,]/4-[A,,A,]/4-[A,,A,]/4-[A,,A,]/4-[A,,A,]/-<[A,,A,]/ z/4 z/ | %24
[M:4/4] z4 [D,,D,]4[K:treble] | z4 [B,,A,]4 | B,,4[K:treble][K:bass] E,2 z2 | %27
[M:9/8][K:treble] [E,,E,]6- [E,,E,][K:bass] z z |[M:4/4] z2 z E, z2 z E, | D,,4 A,,4 | x8 | %31
[M:3/4] x6 |] %32
V:11
 x8 | x8 | x8 | x8 |[M:7/8] x7 |[M:1/4] x2 |[M:4/4] x2[K:treble] x6 | x2[K:treble] x2[K:bass] x4 | %8
 x2[K:treble] x2[K:bass] x2[K:treble] x2 | x8 | x2[K:treble] x2[K:bass] x4 | %11
 x2[K:treble] x2[K:bass] x4 | x2[K:treble] x2[K:bass] x4 |[M:3/4] x[K:treble] x5 |[M:11/32] x11/4 | %15
[M:4/4] x8 | x8 | x8 | %18
[M:9/8] (4:3:5[GBe-][^Ae]-[Ae-]/[Be]/-[Be-] e3- e-[G,-D-E-e]/<[G,DE]/-[G,DE] |[M:4/4] x8 | x8 | %21
 x8 |[M:3/4] x6 |[M:11/32] x11/4 |[M:4/4] x8 | x8 | x8 |[M:9/8] x9 |[M:4/4] x8 | x8 | x8 | %31
[M:3/4] x6 |] %32
V:12
 x8 | x8 | x8 | x8 |[M:7/8] x7 |[M:1/4] x2 |[M:4/4] x8 | x8 | x8 | x8 | x8 | x8 | x8 |[M:3/4] x6 | %14
[M:11/32] x11/4 |[M:4/4] x73/15[K:treble] x3 | x8 | x8 | %18
[M:9/8][K:treble] (4:3:5E,-[E,=G]-[E,-G]/[E,^G]/-[E,-G] E,3- E, E,2 |[M:4/4][K:bass] x8 | x8 | x8 | %22
[M:3/4] x6 |[M:11/32] x11/4 |[M:4/4] x5[K:treble] x3 | x8 | x2[K:treble] x2[K:bass] x4 | %27
[M:9/8][K:treble] x7[K:bass] x2 |[M:4/4] A,,4 A,,4 | x8 | x8 |[M:3/4] x6 |] %32
V:13
 x8 | x8 | x8 | x8 |[M:7/8] x7 |[M:1/4] x2 |[M:4/4] x8 | x8 | x8 | x8 | x8 | x8 | x8 |[M:3/4] x6 | %14
[M:11/32] x11/4 |[M:4/4] x73/15[K:treble] x3 | x8 | x8 | %18
[M:9/8][K:treble] E,,6- E,,-E,,/4 z/4 z/ z |[M:4/4][K:bass] x8 | x8 | x8 |[M:3/4] x6 | %23
[M:11/32] x11/4 |[M:4/4] x5[K:treble] x3 | x8 | x2[K:treble] x2[K:bass] x4 | %27
[M:9/8][K:treble] x7[K:bass] x2 |[M:4/4] x8 | x8 | x8 |[M:3/4] x6 |] %32

